X: 7
T: Da shi hua
L: 1/8
M: 2/4
K: C
cc2d [I:setbarnb 1]| 
e2z2 | 
ee2d | 
c4 | 
AA2c | 
d B A G | 
E G A E | 
G2z2 | 
A2c2 | 
A c A G | 
E A F E | 
D E G A | 
E2z2 | 
d> ^c d d | 
A2z2 | 
d B d d | 
c2z2 | 
cc2d | 
e de2 | 
c> de2 | 
e> e e d | 
c2e d | 
dc2A | 
c2z2 | 
A2c2 | 
A c A G | 
E A F E | 
D E G A | 
E2z2 | 
A2c2 | 
A c A G | 
E A F E | 
D E G A | 
E2z2 |]

@@@ Tune index: 8675
